material/.icons/material/passport.svg

<svg xmlns="http://www.w3.org/2000/svg" viewBox="0 0 24 24"><path d="M6 2a2 2 0 00-2 2v16a2 2 0 002 2h12a2 2 0 002-2V4a2 2 0 00-2-2H6m6 3a5 5 0 015 5 5 5 0 01-5 5 5 5 0 01-5-5 5 5 0 015-5m0 1c-.41.62-.75 1.29-.96 2h1.92A7.23 7.23 0 0012 6m-1.3.22C9.78 6.53 9 7.17 8.54 8H10c.18-.62.4-1.22.7-1.78m2.59 0c.3.56.53 1.16.71 1.78h1.46c-.46-.83-1.25-1.46-2.17-1.78M8.13 9c-.08.32-.13.65-.13 1s.05.68.13 1h1.69c-.04-.33-.07-.66-.07-1 0-.34.03-.67.07-1H8.13m2.7 0c-.05.32-.08.66-.08 1 0 .34.03.67.08 1h2.34c.04-.33.08-.66.08-1 0-.34-.04-.68-.08-1h-2.34m3.35 0c.04.33.07.66.07 1 0 .34-.03.67-.07 1h1.69c.08-.32.13-.65.13-1s-.05-.68-.13-1h-1.69m-5.64 3c.46.83 1.24 1.46 2.16 1.78-.3-.56-.52-1.15-.7-1.78H8.54m2.5 0c.21.72.55 1.38.96 2 .42-.62.75-1.28.96-2h-1.92M14 12c-.18.63-.41 1.22-.71 1.78.92-.32 1.71-.95 2.17-1.78H14m-7 5h10v2H7v-2z"/></svg>

<?xml version="1.0" encoding="UTF-8"?><!DOCTYPE svg PUBLIC "-//W3C//DTD SVG 1.1//EN" "http://www.w3.org/Graphics/SVG/1.1/DTD/svg11.dtd"><svg xmlns="http://www.w3.org/2000/svg" xmlns:xlink="http://www.w3.org/1999/xlink" version="1.1" id="mdi-passport" width="24" height="24" viewBox="0 0 24 24"><path d="M6,2A2,2 0 0,0 4,4V20A2,2 0 0,0 6,22H18A2,2 0 0,0 20,20V4A2,2 0 0,0 18,2H6M12,5A5,5 0 0,1 17,10A5,5 0 0,1 12,15A5,5 0 0,1 7,10A5,5 0 0,1 12,5M12,6C11.59,6.62 11.25,7.29 11.04,8H12.96C12.75,7.29 12.42,6.62 12,6M10.7,6.22C9.78,6.53 9,7.17 8.54,8H10C10.18,7.38 10.4,6.78 10.7,6.22M13.29,6.22C13.59,6.78 13.82,7.38 14,8H15.46C15,7.17 14.21,6.54 13.29,6.22M8.13,9C8.05,9.32 8,9.65 8,10C8,10.35 8.05,10.68 8.13,11H9.82C9.78,10.67 9.75,10.34 9.75,10C9.75,9.66 9.78,9.33 9.82,9H8.13M10.83,9C10.78,9.32 10.75,9.66 10.75,10C10.75,10.34 10.78,10.67 10.83,11H13.17C13.21,10.67 13.25,10.34 13.25,10C13.25,9.66 13.21,9.32 13.17,9H10.83M14.18,9C14.22,9.33 14.25,9.66 14.25,10C14.25,10.34 14.22,10.67 14.18,11H15.87C15.95,10.68 16,10.35 16,10C16,9.65 15.95,9.32 15.87,9H14.18M8.54,12C9,12.83 9.78,13.46 10.7,13.78C10.4,13.22 10.18,12.63 10,12H8.54M11.04,12C11.25,12.72 11.59,13.38 12,14C12.42,13.38 12.75,12.72 12.96,12H11.04M14,12C13.82,12.63 13.59,13.22 13.29,13.78C14.21,13.46 15,12.83 15.46,12H14M7,17H17V19H7V17Z" /></svg>
